!!!SOCIAL_FUNCTION:	songs connected with legends
!!!PDT:	1929
!!!OTL: No_3_Song_of_Elder_Brother_After_He_Had_Created_the_Spirits.krn
!!!REG: Southwest
!!!LANG: Non-Tone
!!!LING_GROUP: Uto-Aztecan
**kern
*staff1
=1-
*clefF4
*k[b-e-]
*M2/4
Fq/
4F\
8.B-\L
16B-\Jk
=2
4B-\
(8.G\L
16F\Jk)
=3
(8.G\L
16F\Jk)
8F\
8r
=4
B-q/
4B-\
B-q/
(8.B-\L
16G\Jk)
=5
4G\
(8.G\L
16E-\Jk)
=6
(8.F\L
16E-\Jk)
8E-\
8r
=7
8.G\L
16G\Jk
8.E-\L
16G\Jk
=8
12B-^\L
12A\
12G\J
12G^\L
12F\
12E-\J
=9
Fq/
4F\
8.F\L
16F\Jk
=10
Fq/
4F\
Fq/
4F\
=11
2F\
==
*-
